dist/svgs/devui-icons/op/qrcode.svg

<svg xmlns="http://www.w3.org/2000/svg" viewBox="0 0 16 16"><path d="M9 9H4V7h3V4h2v5zM1 1h5v5H1V1zm2 2v1h1V3H3zm7-2h5v5h-5V1zm2 2v1h1V3h-1zM1 10h5v5H1v-5zm2 2v1h1v-1H3zM7 1h2v2H7V1zm5 6v2h-2V7h2zM3 7v2H1V7h2zm10 6V8h2v7h-5v-2h3zm-4 1H7v-4h4v2H9v2z"/></svg>

<?xml version="1.0" encoding="UTF-8"?>
<svg width="16px" height="16px" viewBox="0 0 16 16" version="1.1" xmlns="http://www.w3.org/2000/svg" xmlns:xlink="http://www.w3.org/1999/xlink">
    <title>操作/二维码</title>
    <desc>Created with Sketch.</desc>
    <g id="操作/二维码" stroke="none" stroke-width="1" fill="none" fill-rule="evenodd">
        <g id="二维码" fill="#293040" fill-rule="nonzero">
            <path d="M9,9 L4,9 L4,7 L7,7 L7,4 L9,4 L9,9 Z M1,1 L6,1 L6,6 L1,6 L1,1 Z M3,3 L3,4 L4,4 L4,3 L3,3 Z M10,1 L15,1 L15,6 L10,6 L10,1 Z M12,3 L12,4 L13,4 L13,3 L12,3 Z M1,10 L6,10 L6,15 L1,15 L1,10 Z M3,12 L3,13 L4,13 L4,12 L3,12 Z M7,1 L9,1 L9,3 L7,3 L7,1 Z M12,7 L12,9 L10,9 L10,7 L12,7 Z M3,7 L3,9 L1,9 L1,7 L3,7 Z M13,13 L13,8 L15,8 L15,15 L10,15 L10,13 L13,13 Z M9,14 L7,14 L7,10 L11,10 L11,12 L9,12 L9,14 Z" id="Combined-Shape"></path>
        </g>
    </g>
</svg>
